X: 1
T: King George the IVth
T: King George IV's Welcome
C: Captain Daniel Menzies
B: Skye 1887 p.106
R: strathspey
Z: 2014 John Chambers <jc:trillian.mit.edu>
S: page from Concord Slow Scottish Session collection
N: "from Buddy MacMaster at Valley of the Moon Scottish Fiddle Camp, August 1986"
M: C
L: 1/16
K: Ador
B,2 |\
"Am"A,A,3 A,3B, C3B, A,3A | "Am"A,A,3 A,3C "G"B,3A, G,3B, |\
"Am"A,A,3 A,3B, "C"C3D E3C | "G"B,3D G3E DCB,A, G2 :|
B2 |\
"Am"c3e A3e c3e dcBA | "Am"c3e A3e "G"dcBA G3B |\
"Am"c3e A3e "C"c3e A3f | "EmG"g3g agfe "G"dcBA G3 ||
B |\
"Am"c3e A3e c3e dcBA | "Am"c3e A3e "G"dcBA G3B |\
"Am"ce3 "G"Bd3 "Am"AB3 E3A | "Em"GA3 G3E "G"DCB,A, G,2 |]
